packages/foundations/assets/icons/functional/images/logos/db_12.svg

<svg width="12" height="12" viewBox="0 0 12 12" fill="none" xmlns="http://www.w3.org/2000/svg">
<g clip-path="url(#clip0_232_295)">
<path fill-rule="evenodd" clip-rule="evenodd" d="M10 2.5C10.5523 2.5 11 2.94773 11 3.50002V8.49301C11.0011 9.04689 10.5539 9.49726 10 9.5H2.005C1.4519 9.5 1.00275 9.05311 1 8.50001V3.50002C1 3.23393 1.10604 2.97882 1.29466 2.79114C1.48328 2.60346 1.73892 2.49869 2.005 2.5H10ZM10 3.21002H2.005C1.92948 3.21019 1.85734 3.24131 1.80537 3.2961C1.75341 3.3509 1.72617 3.4246 1.73 3.50002V8.49301C1.72729 8.56776 1.75503 8.6404 1.80687 8.69431C1.85871 8.74823 1.93021 8.77879 2.005 8.77901H10C10.0739 8.77746 10.1441 8.74631 10.1949 8.69254C10.2456 8.63878 10.2727 8.5669 10.27 8.49301V3.50002C10.2738 3.42545 10.2472 3.35253 10.1964 3.29789C10.1455 3.24324 10.0746 3.21154 10 3.21002ZM4.058 3.70902C5.243 3.70902 5.898 4.45102 5.898 5.97902C5.9 7.30502 5.455 8.28001 4.058 8.29101H2.376V3.70902H4.058ZM8.292 3.71102C9.581 3.71102 9.6 4.73202 9.6 4.82702C9.59528 5.31933 9.27126 5.7515 8.8 5.89402C9.634 6.07502 9.766 6.68102 9.766 7.00302C9.766 8.29102 8.429 8.29101 8 8.29101H6.38V3.71102H8.292ZM3.699 4.43002H3.476V7.54802H3.867C4.45 7.54802 4.789 7.08202 4.789 6.07402C4.789 5.15102 4.689 4.43002 3.699 4.43002ZM7.951 6.37102H7.47V7.54802H7.921C8.1 7.54802 8.662 7.54802 8.662 6.96002C8.662 6.70402 8.522 6.37102 7.951 6.37102ZM7.816 4.41702H7.47V5.52302H7.905C8.289 5.52302 8.505 5.26902 8.505 4.96902C8.505 4.58902 8.309 4.41702 7.816 4.41702Z" fill="#1A1C1F"/>
</g>
<defs>
<clipPath id="clip0_232_295">
<rect width="12" height="12" fill="white"/>
</clipPath>
</defs>
</svg>

<svg xmlns="http://www.w3.org/2000/svg" width="12" height="12" fill="none"><g clip-path="url(#a)"><path fill="#1A1C1F" fill-rule="evenodd" d="M10 2.5a1 1 0 0 1 1 1v4.993A1.005 1.005 0 0 1 10 9.5H2.005A1.005 1.005 0 0 1 1 8.5v-5a1 1 0 0 1 1.005-1zm0 .71H2.005a.276.276 0 0 0-.275.29v4.993a.276.276 0 0 0 .275.286H10a.276.276 0 0 0 .27-.286V3.5a.276.276 0 0 0-.27-.29m-5.942.499c1.185 0 1.84.742 1.84 2.27.002 1.326-.443 2.301-1.84 2.312H2.376V3.709zm4.234.002c1.289 0 1.308 1.021 1.308 1.116a1.13 1.13 0 0 1-.8 1.067c.834.181.966.787.966 1.109 0 1.288-1.337 1.288-1.766 1.288H6.38v-4.58zm-4.593.719h-.223v3.118h.391c.583 0 .922-.466.922-1.474 0-.923-.1-1.644-1.09-1.644m4.252 1.941H7.47v1.177h.451c.179 0 .741 0 .741-.588 0-.256-.14-.589-.711-.589m-.135-1.954H7.47v1.106h.435c.384 0 .6-.254.6-.554 0-.38-.196-.552-.689-.552" clip-rule="evenodd"/></g><defs><clipPath id="a"><path fill="#fff" d="M0 0h12v12H0z"/></clipPath></defs></svg>
